X: 157
T: Raising the dead
%%VWML:Wrights-3753-p79-0
F: http://www.vwml.org/record/Wrights/3753/p79
%R: slip-jig
B: Daniel Wright "Wright's Compleat Collection of Celebrated Country Dances" 1740 p.79
S: http://library.efdss.org/cgi-bin/dancebooks.cgi
Z: 2014 John Chambers <jc:trillian.mit.edu>
N: Guessing that "the Bass play'd twice" means to repeat the unusual first strain, which fits the dance.
N: The rhythms don't quite match between the strains; not fixed.
M: 9/4
L: 1/4
K: F
%-------------------------
|:\
F3 F3 C3 | F3 F3 G3 |\
F3 F3 B,3 | C3 C3 F2 :|\
c |\
A>Bc (d<c)f e2c | A>Bc (d<c)f g2c | A>Bc (d<c)f d2g | bag g2f f2 |]\
e |\
dcB AGF GAB | AGF DEF G2B |\
ABc cd_e def | edc fge f2 |] %-------------------------
%%begintext align
%% First all four hands half round and turn single, %% then quite round and turn single, to the
%% Bass play'd twice. the 1st Cu. lead between %% the 3d Cu. and up again, and cast of, then sett %% and cast up, and cross over below the 3d Cu. %% and lead up the Middle, then cast off and
%% turn your partner.
%%endtext
%-------------------------
%%sep 2 4 300
T: Tom Wells Jigg
T: Longways &c.
%R: slip-jig
B: Daniel Wright "Wright's Compleat Collection of Celebrated Country Dances" 1740 p.79
S: http://library.efdss.org/cgi-bin/dancebooks.cgi
Z: 2014 John Chambers <jc:trillian.mit.edu> M: 9/4
L: 1/4
K: Dmix %-------------------------
[|\
d>ed f2g a3 | c2d e2f ecA |\
d>cB AFd E2z | d2z D2E F>ED |]
[|\
G>AG B>cd F3 | G>FE E>FG F2E |\
G>AG B>cd F2z | d2z D2E F>ED |] %------------------------- %%begintext align
%% The 1st Cu. sett each right Elbows to one %% another, and then their left Elbows, and cast %% off, then lead through the 3d Cu. cast up, and %% clap hands; then the 1st Man Hey with the 2d %% Cu. and 1st Wo. with the 3d Cu. at the same %% time, then right and left with the 2d Cu. quite %% round.
%%endtext
%-------------------------
%%sep 2 4 300
